X:1
T:Title
%%score ( 1 2 3 ) ( 4 5 6 )
L:1/8
Q:1/4=108
M:4/4
K:Bb
V:1 treble nm="Grand Piano, Soprano"
V:2 treble 
V:3 treble 
V:4 bass nm="Choir Pad, Mighty to Save (Zuley)"
V:5 bass 
V:6 bass 
V:1
 F2 [DB]2 [FB]2 [Fc]2 | z2 d6 | DB, [Fe]4 [FB]2 | [Fd]2 [Fc]6 | F2 [DB]2 [FB]2 [Fc]2 | %5
w: By~J.~H.~Meredith * * *|||||
 [Fc]2 [Fd]6 | z2 [Gc]4 [FB]2 | [EA]2 [DB]6 | [DF]2 [DB]2 [DB]2 [DB]2 | [FA]2 [EG]6 | %10
w: |||||
 [EG]2 [Ec]2 [Ec]2 [Ec]2 | [GB]2 [FA]6 | [FA]2 [FB]2 [FB]2 [Fc]2 | [Fd]2 [Ge]6 | %14
w: ||||
 (3[Cc][Dd][Ee] [Ff]4 [Fd]2- | [Fd][Ec] [DB]6 | (3[DF][DB][Ec] [Fd]4 [FB]2- | [FB][FA] [EG]6 | %18
w: ||||
 (3[G=B][Gc][Gd] [Ge]4 [Gc]2- | [Gc][GB] [FA]6 | FE [DB]2 [FB]2 [Fc]2 | [Fd]2 [Ge]6 | %22
w: ||||
 (3[Cc][Dd][Ee] [Ff]4 [Fd]2- | [Fd][Ec] [DB]6- | [DB]2 z2 z4 |] %25
w: |||
V:2
 x8 | [Fc]2 .F2 .=E2 GF | x8 | x8 | x8 | x8 | x8 | x8 | x8 | x8 | x8 | x8 | x8 | x8 | x8 | x8 | %16
 x8 | x8 | x8 | x8 | x8 | x8 | x8 | x8 | x8 |] %25
V:3
 x8 | z2 z F- F .F3 | x8 | x8 | x8 | x8 | x8 | x8 | x8 | x8 | x8 | x8 | x8 | x8 | x8 | x8 | x8 | %17
 x8 | x8 | x8 | x8 | x8 | x8 | x8 | x8 |] %25
V:4
 F,2 [B,,B,]2 [D,B,]2 [F,A,]2 | [F,A,]2 B,6 | z2 A,2- [E,A,]2 [D,B,]2 | z4 A,4 | %4
 z D, [B,,B,]2 [D,B,]2 [F,A,]2 | z2 B,6 | z2 B,2 z4 | [F,C]2 [B,,B,]6 | %8
 [B,,B,]2 [B,,F,]2 [B,,F,]2 [B,,F,]2 | [D,B,]2 [E,B,]6 | [E,B,]2 [C,C]2 [C,G,]2 [C,G,]2 | %11
 [=E,C]2 [F,C]6 | [E,C]2 [D,B,]2 [D,B,]2 [F,A,]2 | B,2 [E,B,]6 | (3C,D,E, [F,D]4 [F,B,]2- | %15
 [F,B,][F,A,] [B,,B,]6 | z2 [B,,B,]4 [D,B,]2- | [D,B,]2 [E,B,]2 [E,B,]>[E,B,] [E,B,]2 | z4 z2 C2- | %19
 C2 z2 z2 C2 | [D,B,][C,A,] [B,,B,]2 [D,B,]2 [F,A,]2 | B,2 [E,B,]6 | (3C,D,E, [F,D]4 [F,B,]2- | %23
 [F,B,][F,A,] [B,,B,]6- | [B,,B,]2 z2 z4 |] %25
V:5
 x8 | x8 | z2 F,2 z4 | [B,,B,]2 A,-[G,A,] z G, z E, | F,2 z2 z4 | [F,A,]2 z2 F,2 D,2 | %6
 B,,2 E,2- [E,E]2 [F,D]2 | x8 | x8 | x8 | x8 | x8 | x8 | x8 | x8 | x8 | x8 | x8 | %18
 (3F,E,D, [C,C]4 E,2 | =E,2 [F,C]2 [F,C]>[F,C] F,_E, | x8 | x8 | x8 | x8 | x8 |] %25
V:6
 x8 | x8 | x8 | z2 F,4 F,2 | x8 | x8 | x8 | x8 | x8 | x8 | x8 | x8 | x8 | x8 | x8 | x8 | x8 | x8 | %18
 x8 | x8 | x8 | x8 | x8 | x8 | x8 |] %25

